public/logo.svg

<svg width="99" height="84" viewBox="0 0 99 84" fill="none" xmlns="http://www.w3.org/2000/svg">
<path d="M0 82.6356C5.41909 72.2751 8.69907 64.008 11.7295 56.6634H13.5834C14.1182 64.9305 15.0451 72.0267 16.6138 82.6356H0ZM4.34953 0H29.6624L57.6135 60.0696L45.0997 83.7H43.6379L4.34953 0ZM71.589 0H95.1906L98.4706 82.6356H74.869L71.589 0Z" fill="#FFDB05"/>
</svg>

<svg width="99" height="84" fill="none" xmlns="http://www.w3.org/2000/svg"><path d="M0 82.636c5.42-10.36 8.7-18.628 11.73-25.973h1.853c.535 8.267 1.462 15.364 3.03 25.973H0zM4.35 0h25.312l27.952 60.07L45.1 83.7h-1.462L4.35 0zm67.239 0h23.602l3.28 82.636H74.869L71.589 0z" fill="#FFDB05"/></svg>
